!!!OTL: Mis Bueoeli Mis Schaetzaeli geit ueber Sapuener Staeg
!!!ARE: Europa, Mitteleuropa,Schweiz, Kt. Graubuenden, Chur
!!!SCT: D0089
!!!YEM: Copyright 1995, estate of Helmut Schaffrath.
**kern
*ICvox
*Ivox
*M6/8
*k[b-e-a-]
*E-:
{8b-
=1
8g
8a-
8b-
8cc
8ee-
8cc
=2
4b-
8a-
4f}
{8b-
=3
8g
8a-
8b-
8cc
8ee-
8cc
=4
4.b-
4r}
{8g
=5
8f
8g
8f
8e-
8f
8g
=6
8.f
16g
8f
4e-}
{8b-
=7
8g
8a-
8b-
8cc
8ee-
8cc
=8
4.b-
4r}
==
!!!AGN: Liebes - Lied
!! Inzipit = Variante zum Lied
!!!ONB: ESAC (Essen Associative Code) Database: DVA
!!!AMT: compound duple
!!!AIN: vox
!!!EED: Helmut Schaffrath
!!!EEV: 1.0
*-
